src/hero/icons/telegram.svg

<svg height="21" viewBox="0 0 21 21" width="21" xmlns="http://www.w3.org/2000/svg" xmlns:xlink="http://www.w3.org/1999/xlink"><clipPath id="a"><path d="m.854004.416016h20v20h-20z"/></clipPath><g clip-path="url(#a)"><path d="m1.20726 10.0591 4.6084 1.72 1.78374 5.7365c.11413.3674.5634.5032.8616.2594l2.5688-2.0942c.2693-.2194.6528-.2303.9342-.026l4.6332 3.3638c.319.2318.7709.057.8509-.3284l3.3941-16.3261c.0873-.42106-.3264-.77233-.7273-.61726l-18.91304 7.29606c-.46673.18-.462664.8408.0054 1.0162zm6.10467.8044 9.00657-5.54713c.1618-.0994.3284.11947.1894.2484l-7.43304 6.90933c-.26126.2432-.4298.5687-.47753.9219l-.2532 1.8764c-.03354.2506-.38547.2754-.4546.033l-.9738-3.4217c-.11153-.3903.051-.8071.3962-1.0202z"/></g></svg>

<svg width="21" height="21" viewBox="0 0 21 21" xmlns="http://www.w3.org/2000/svg">
<g clip-path="url(#clip0)">
<path d="M1.20726 10.0591L5.81566 11.7791L7.5994 17.5156C7.71353 17.883 8.1628 18.0188 8.461 17.775L11.0298 15.6808C11.2991 15.4614 11.6826 15.4505 11.964 15.6548L16.5972 19.0186C16.9162 19.2504 17.3681 19.0756 17.4481 18.6902L20.8422 2.3641C20.9295 1.94304 20.5158 1.59177 20.1149 1.74684L1.20186 9.0429C0.73513 9.2229 0.739196 9.8837 1.20726 10.0591ZM7.31193 10.8635L16.3185 5.31637C16.4803 5.21697 16.6469 5.43584 16.5079 5.56477L9.07486 12.4741C8.8136 12.7173 8.64506 13.0428 8.59733 13.396L8.34413 15.2724C8.31059 15.523 7.95866 15.5478 7.88953 15.3054L6.91573 11.8837C6.8042 11.4934 6.96673 11.0766 7.31193 10.8635Z"/>
</g>
<defs>
<clipPath id="clip0">
<rect width="20" height="20" fill="white" transform="translate(0.854004 0.416016)"/>
</clipPath>
</defs>
</svg>
